X: 64
T: Maid Behind the Bar
T: Judy's Reel
M: C|
N: From the Roaring Jelly collection, reformatted.
R: reel
K: D
|:\
"D"FAAB AFED | FAAB ABde | "Bm"fBBA Bcde | f2ef "A"edBA | "D"FAAB AFED |
FAAB ABde | "Bm"fBBA "G"BcdB | "A"AFEF "D"D4 :: "D"fgab afde | fdad bdfd |
"Em"efga bgef | "A"gebe geeg | "D"fgaf bfaf | defd efde | "Bm"fBBA "G"BcdB | "A"AFEF "D"D4 :|

%%sep 1 1 500

